X:1
T:Sligo Maid
M:C|
L:1/8
R:Reel
B:Traditional Irish Fiddle Tunes. Randy Miller and Jack Perron.
Z:Transcribed by Ralph Palmer
K:G
|: A2BA Bdef | gedB AGEF | ((3.G.G.G) BG A2GE | DEGA BGdG |
| A2BA Bdef | gedB AGED | [D3B3]G A2GE | DEGA {c}BAA2 :|
|: ea ((3{b}aga) a2ga | bgaf gedg | eg ((3{a}gfg) gage | dggf ga ((3bag) |
| ea ((3{b}aga) a2ga | bgaf gedg | dg ((3{a}gfg) ed ((3{c}BAB) | edgB {c}BAA2 :|
